X:0
T:Hearty Good Fellow/In My Packet I'd One Penny
F:http://vwml.org/record/CJS2/10/642
S:Eliza Small of Langport, Somerset
Z:Transcribed by Alice Baillie, January 2014
M:C
L:1/8
K:G
B c | d2 (dB) G2 (FG) | A2 A2 D2 B2 | e2> c2 A2 G2 | 
w:O-thers all asked_ me if_ I could play I looked so poor and 
(FA) D4 D2 | G2 G A B2 A G | c2 c c d2 (Bc) | 
w:shab--by But I went to play, played their mo-ney a-way so_
d2 g2 d2 G2 | A4 G2 | | 
w:they're de-ceived in To-vey

